images/icon-hero-theeth-1.svg

<svg width="56" height="56" viewBox="0 0 56 56" fill="none" xmlns="http://www.w3.org/2000/svg">
<path fill-rule="evenodd" clip-rule="evenodd" d="M25.8537 1.25096C25.4426 1.42979 24.9633 2.02928 24.874 2.47651C24.8024 2.83417 25.2006 6.59371 25.3785 7.24121C25.5902 8.01132 26.3492 8.64067 27.0665 8.64067H27.3434V10.1719C27.3434 11.5574 27.3642 11.7239 27.5622 11.9219C27.6825 12.0422 27.8794 12.1407 27.9997 12.1407C28.12 12.1407 28.3169 12.0422 28.4372 11.9219C28.6349 11.7242 28.6559 11.5574 28.6559 10.1864V8.66943L29.0904 8.61125C29.688 8.53107 30.2639 8.14924 30.5075 7.6716C30.6422 7.40757 30.7782 6.68635 30.9073 5.54984C31.0673 4.14175 31.1342 3.82871 31.2741 3.83123C31.368 3.83287 33.2376 4.16657 35.4285 4.57268L39.412 5.31107L39.53 5.65615C39.7717 6.3626 40.3055 6.95618 41.02 7.31329L41.7065 7.65629H48.4534C54.8506 7.65629 55.2096 7.6459 55.3812 7.45624C55.6203 7.1921 55.6112 6.75023 55.3621 6.52481C55.1843 6.36381 54.749 6.34379 51.4246 6.34379H47.6872V5.59512C47.6872 4.76464 47.5169 4.48442 47.0119 4.48442C46.5498 4.48442 46.3747 4.79493 46.3747 5.61415V6.34379L44.2145 6.34139C41.5965 6.33843 41.2617 6.24393 40.8894 5.40218C40.6285 4.81221 40.6653 4.3197 41.0065 3.84064C41.4933 3.15682 41.324 3.17192 48.5271 3.17192C55.8849 3.17192 55.6059 3.20156 55.5409 2.42576C55.482 1.72467 55.6983 1.74403 48.2888 1.77728C42.1588 1.80484 41.583 1.8231 41.1994 2.00193C40.611 2.27635 39.8831 2.97909 39.6485 3.49939C39.4654 3.90528 39.4221 3.93601 39.1112 3.87935C32.4296 2.66256 31.2212 2.41439 31.1178 2.23742C30.8543 1.78679 30.4449 1.38134 30.1138 1.24298C29.617 1.0355 26.3347 1.04151 25.8537 1.25096ZM26.3093 2.58107C26.191 2.69942 26.1535 2.86742 26.1934 3.1006C26.2257 3.29026 26.3491 4.25735 26.4675 5.24982C26.6351 6.65584 26.7241 7.08459 26.8699 7.19123C26.9859 7.276 27.4194 7.32817 28.0084 7.32817C29.3936 7.32817 29.3442 7.40385 29.6409 4.82053C29.8757 2.77478 29.8774 2.69023 29.6869 2.551C29.375 2.32284 26.5423 2.3481 26.3093 2.58107ZM17.3293 11.9635C15.7859 12.2168 14.3051 12.7932 13.1247 13.5998C9.77684 15.888 8.32532 20.7593 9.35542 26.25C10.0118 29.7489 11.1159 32.7083 13.4972 37.3516C14.2376 38.7953 14.997 40.3782 15.1848 40.869C15.6246 42.0193 16.1811 44.1448 16.7263 46.7579C17.3407 49.7016 17.5746 50.6819 17.9008 51.6797C18.7796 54.3684 19.9711 55.5931 21.7106 55.5959C22.6582 55.5974 23.262 55.3192 23.7477 54.6572C24.6971 53.3634 25.0865 51.5846 25.7522 45.5C26.4054 39.5285 26.9902 37.4883 28.0483 37.4883C28.5876 37.4883 28.9183 38.0017 29.3591 39.523C29.6924 40.6729 29.9812 42.589 30.4088 46.4844C30.9783 51.6739 31.365 53.3627 32.2725 54.6266C32.7744 55.3253 33.3196 55.5866 34.2887 55.5928C35.7612 55.6023 36.6759 54.9294 37.5256 53.211C38.0925 52.0647 38.4678 50.7246 39.2673 46.991C40.3731 41.8276 40.6135 41.1206 42.5348 37.3817C44.9338 32.7132 46.116 29.4977 46.7684 25.8672C47.0617 24.2354 47.0432 21.075 46.7327 19.7358C45.7715 15.5909 43.3988 13.0859 39.5177 12.1181C38.7346 11.9229 38.2371 11.8777 36.8591 11.8769C34.5682 11.8755 33.2465 12.1647 30.9724 13.1645C30.4767 13.3825 29.6504 13.6435 29.1362 13.7445C27.8949 13.9884 26.7471 13.8462 25.3987 13.2813C23.9311 12.6665 22.7797 12.2818 21.82 12.0852C20.633 11.8422 18.4316 11.7825 17.3293 11.9635ZM17.1716 13.3987C12.9426 14.2538 10.6061 17.2877 10.42 22.166C10.3844 23.0956 10.4137 24.1449 10.493 24.791C10.9387 28.4198 12.4464 32.609 15.0331 37.4063C16.4919 40.112 17.0408 41.73 17.9443 45.9892C19.0497 51.1996 19.4212 52.4235 20.2136 53.4643C20.771 54.1962 22.0499 54.5123 22.5265 54.0358C23.3545 53.2077 23.7442 51.3736 24.4449 45.0079C24.9426 40.4857 25.4059 38.3854 26.1552 37.2541C27.3197 35.4961 29.3295 35.8247 30.2584 37.9253C30.8415 39.2438 31.2281 41.388 31.7228 46.0469C32.2824 51.3156 32.8157 53.5608 33.6351 54.0978C33.9927 54.3321 34.9044 54.2539 35.3086 53.9544C36.3756 53.1637 36.8573 51.8329 37.9529 46.6485C38.9854 41.7628 39.488 40.2512 41.062 37.2969C45.0676 29.7795 46.4228 24.0562 45.2777 19.4951C44.93 18.1105 44.0762 16.5137 43.2206 15.6483C41.7497 14.1603 39.4804 13.2382 37.2818 13.2353C36.7447 13.2345 36.6425 13.2695 36.4863 13.5079C36.2547 13.8615 35.6187 13.8937 35.4118 13.5625C35.3367 13.4422 35.1703 13.3438 35.0421 13.3438C34.5491 13.3438 32.6914 13.8896 31.601 14.3547C30.3087 14.906 29.6516 15.0843 28.5173 15.1909L27.7263 15.2654L28.2652 15.6157C28.5614 15.8084 28.9798 15.9974 29.1948 16.0356C29.6407 16.115 30.0778 16.4644 30.0778 16.7414C30.0778 16.8446 29.9869 17.0412 29.8758 17.1784C29.7162 17.3755 29.5747 17.4239 29.2023 17.4094C28.4357 17.3793 27.7004 16.9584 26.5531 15.8929C25.903 15.2891 25.2012 14.7546 24.7484 14.5185C23.852 14.051 22.1067 13.4824 21.2645 13.3834L20.649 13.311L20.8244 13.6502C21.0546 14.0953 21.0455 14.2823 20.7809 14.5469C20.3125 15.0154 19.7884 14.7225 19.3593 13.7526L19.13 13.2344L18.5063 13.2447C18.1632 13.2504 17.5626 13.3196 17.1716 13.3987ZM34.2563 14.1208C33.8361 14.5505 33.2497 15.6421 33.2497 15.9945C33.2497 16.3324 33.5648 16.625 33.9285 16.625C34.2515 16.625 34.3508 16.5227 34.736 15.7932C34.8915 15.4988 35.1129 15.1562 35.228 15.0321C35.5185 14.7185 35.5012 14.1666 35.1941 13.9516C34.8385 13.7024 34.628 13.7405 34.2563 14.1208ZM21.2387 14.7311C21.0197 14.8187 20.8729 15.2944 20.9948 15.522C21.0522 15.6293 21.4336 16.0436 21.8424 16.4426C22.6636 17.2441 23.0391 17.3656 23.345 16.9288C23.5948 16.5722 23.5561 16.3349 23.1697 15.8539C22.4605 14.9715 21.7176 14.5395 21.2387 14.7311ZM33.3044 17.0839C32.9911 17.2615 32.9252 17.3937 32.9232 17.8471C32.9221 18.1075 32.8306 18.3577 32.6631 18.558C32.5209 18.7281 32.3724 18.9703 32.333 19.0962C32.2381 19.4 32.6358 19.9063 32.9695 19.9063C33.5869 19.9063 34.2353 18.9199 34.2324 17.985C34.2306 17.3827 34.1765 17.2607 33.8311 17.0789C33.5469 16.9293 33.5774 16.929 33.3044 17.0839ZM22.9653 17.6679C22.6207 18.0831 22.9029 18.8507 23.6551 19.544C24.2861 20.1257 24.5545 20.2083 24.923 19.9342C25.3979 19.581 25.357 19.2822 24.7557 18.7126C24.4645 18.4367 24.1424 18.051 24.04 17.8555C23.885 17.56 23.7905 17.5 23.4791 17.5C23.2732 17.5 23.0419 17.5756 22.9653 17.6679ZM31.0075 19.3835C30.7669 19.4366 30.3046 19.5145 29.98 19.5565C29.5103 19.6173 29.3437 19.6951 29.162 19.9387C28.9515 20.2209 28.9467 20.2672 29.0991 20.5402C29.2339 20.7813 29.3547 20.8425 29.7532 20.8715C30.3517 20.9152 31.4669 20.711 31.8005 20.4968C31.9754 20.3845 32.0466 20.2326 32.0466 19.9718C32.0466 19.4151 31.7147 19.2272 31.0075 19.3835ZM25.7745 19.5595C25.5488 19.8087 25.5404 20.2751 25.7576 20.4923C25.9209 20.6556 26.5932 20.8178 27.5958 20.9357C28.053 20.9895 28.1563 20.9627 28.3887 20.7303C28.9916 20.1274 28.6131 19.7177 27.2642 19.5129C26.0164 19.3234 25.9872 19.3243 25.7745 19.5595Z" fill="#1E84B5"/>
</svg>

<svg xmlns="http://www.w3.org/2000/svg" width="56" height="56" fill="none" viewBox="0 0 56 56"><path fill="#1e84b5" fill-rule="evenodd" d="M25.854 1.251c-.411.179-.89.778-.98 1.226-.072.357.327 4.117.505 4.764.211.77.97 1.4 1.688 1.4h.276v1.53c0 1.386.021 1.553.22 1.75.12.121.316.22.437.22.12 0 .317-.099.437-.22.198-.197.219-.364.219-1.735V8.67l.434-.058c.598-.08 1.174-.462 1.418-.94.134-.263.27-.985.4-2.121.16-1.408.226-1.721.366-1.719.094.002 1.964.336 4.154.742l3.984.738.118.345c.242.707.776 1.3 1.49 1.657l.686.343h6.747c6.398 0 6.757-.01 6.928-.2.24-.264.23-.706-.019-.931-.178-.161-.613-.181-3.937-.181h-3.738v-.749c0-.83-.17-1.11-.675-1.11-.462 0-.637.31-.637 1.13v.729l-2.16-.003c-2.619-.003-2.953-.097-3.326-.939-.26-.59-.224-1.082.117-1.561.487-.684.318-.67 7.521-.67 7.358 0 7.079.03 7.014-.745-.059-.701.157-.682-7.252-.649-6.13.028-6.706.046-7.09.225-.588.274-1.316.977-1.55 1.497-.184.406-.227.437-.538.38-6.681-1.216-7.89-1.465-7.993-1.642-.264-.45-.673-.856-1.004-.994-.497-.208-3.78-.201-4.26.008m.455 1.33c-.118.118-.155.286-.116.52.033.19.156 1.156.274 2.149.168 1.406.257 1.835.403 1.941.116.085.55.137 1.138.137 1.386 0 1.336.076 1.633-2.507.235-2.046.236-2.13.046-2.27-.312-.228-3.145-.203-3.378.03m-8.98 9.383c-1.543.253-3.024.83-4.204 1.636-3.348 2.288-4.8 7.16-3.77 12.65.657 3.499 1.76 6.458 4.142 11.102.74 1.443 1.5 3.026 1.688 3.517.44 1.15.996 3.276 1.541 5.889.615 2.944.849 3.924 1.175 4.922.879 2.688 2.07 3.913 3.81 3.916.947.001 1.551-.277 2.037-.939.95-1.294 1.338-3.072 2.004-9.157.653-5.971 1.238-8.012 2.296-8.012.54 0 .87.514 1.311 2.035.333 1.15.622 3.066 1.05 6.961.57 5.19.956 6.879 1.864 8.143.501.698 1.047.96 2.016.966 1.472.01 2.387-.664 3.237-2.382.566-1.146.942-2.486 1.741-6.22 1.106-5.163 1.346-5.87 3.268-9.61 2.399-4.668 3.581-7.883 4.233-11.514.294-1.632.275-4.792-.035-6.131-.961-4.145-3.334-6.65-7.215-7.618-.783-.195-1.28-.24-2.659-.241-2.29-.002-3.613.288-5.887 1.287a10.4 10.4 0 0 1-1.836.58c-1.241.244-2.389.102-3.737-.463-1.468-.615-2.62-1-3.579-1.196-1.187-.243-3.388-.303-4.49-.122m-.157 1.435c-4.23.855-6.566 3.889-6.752 8.767-.036.93-.006 1.979.073 2.625.446 3.629 1.953 7.818 4.54 12.615 1.459 2.706 2.008 4.324 2.911 8.583 1.106 5.21 1.477 6.435 2.27 7.475.557.732 1.836 1.048 2.313.572.828-.828 1.217-2.662 1.918-9.028.498-4.522.96-6.623 1.71-7.754 1.165-1.758 3.174-1.43 4.103.671.584 1.319.97 3.463 1.465 8.122.56 5.269 1.093 7.514 1.912 8.05.358.235 1.27.157 1.674-.143 1.067-.79 1.548-2.121 2.644-7.306 1.032-4.885 1.535-6.397 3.109-9.351 4.006-7.517 5.36-13.24 4.216-17.802-.348-1.385-1.202-2.981-2.057-3.847-1.471-1.488-3.74-2.41-5.94-2.413-.536 0-.639.035-.795.273-.231.354-.867.386-1.074.055a.5.5 0 0 0-.37-.22c-.493 0-2.35.547-3.441 1.012-1.292.551-1.95.73-3.084.836l-.79.074.538.35c.296.193.715.382.93.42.446.08.883.43.883.706 0 .104-.091.3-.202.437-.16.197-.301.246-.674.231-.766-.03-1.502-.45-2.649-1.516-.65-.604-1.352-1.138-1.805-1.375-.896-.467-2.641-1.036-3.483-1.135l-.616-.072.175.34c.23.444.221.631-.043.896-.468.468-.993.175-1.422-.794l-.229-.519-.624.01a9 9 0 0 0-1.334.155m17.084.722c-.42.43-1.006 1.521-1.006 1.874 0 .337.315.63.678.63.324 0 .423-.102.808-.832.156-.294.377-.637.492-.76.29-.314.273-.866-.034-1.081-.355-.25-.566-.211-.938.169m-13.017.61c-.22.088-.366.563-.244.791.057.107.439.522.847.92.822.802 1.197.924 1.503.487.25-.357.211-.594-.175-1.075-.71-.882-1.452-1.314-1.931-1.123m12.065 2.353c-.313.178-.379.31-.38.763-.002.26-.093.51-.26.711-.143.17-.292.412-.331.538-.095.304.303.81.636.81.618 0 1.266-.986 1.263-1.921-.001-.602-.056-.724-.4-.906-.285-.15-.255-.15-.528.005m-10.339.584c-.344.415-.062 1.183.69 1.876.631.582.9.664 1.268.39.475-.353.434-.652-.167-1.221-.291-.276-.614-.662-.716-.858-.155-.295-.25-.355-.56-.355-.207 0-.438.076-.515.168m8.043 1.716c-.241.053-.703.13-1.028.172-.47.061-.636.14-.818.383-.21.282-.215.328-.063.601.135.241.256.303.654.332.599.043 1.714-.161 2.047-.375.175-.113.247-.264.247-.525 0-.557-.332-.745-1.04-.588m-5.233.175c-.226.25-.235.716-.017.933.163.164.835.326 1.838.444.457.053.56.027.793-.206.603-.603.224-1.012-1.125-1.217-1.248-.19-1.277-.189-1.49.046" clip-rule="evenodd"/></svg>
